X:1
T:[ID 1-80b]
T:[ID 1-80b]
T:Bezeichnung standardisiert: Menuett Men.
T:Urheber unbekannt Datum in der hier transkribierten schriftlichen Quelle: vermutlich vor 1767
C:Urheber unbekannt
C:Datum in der hier transkribierten schriftlichen Quelle: vermutlich vor 1767
L:1/8
M:3/4
K:D
V:1 treble 
V:1
 d2 defg | a3 gfa | g2 f2 ef | d2 dc d2 | d2 defg | a3 gfa | ef d2 c2 | d6 :: a4 (3fga | b2 e4 | %10
 g4 (3efg | a2 d4 | egfedc | d6 :| %14

